SF_Symbols/crop.svg

<?xml version="1.0" encoding="UTF-8"?>
<svg xmlns="http://www.w3.org/2000/svg" xmlns:xlink="http://www.w3.org/1999/xlink" width="24" height="24" viewBox="0 0 24 24" version="1.1">
<g id="surface1">
<path style=" stroke:none;fill-rule:nonzero;fill:rgb(100%,100%,100%);fill-opacity:1;" d="M 23.417969 17.082031 C 23.417969 16.832031 23.339844 16.640625 23.1875 16.5 C 23.042969 16.359375 22.839844 16.292969 22.582031 16.292969 L 7.5625 16.292969 C 7.359375 16.292969 7.261719 16.191406 7.261719 15.988281 L 7.261719 0.96875 C 7.261719 0.710938 7.183594 0.503906 7.03125 0.34375 C 6.878906 0.175781 6.671875 0.09375 6.417969 0.09375 C 6.167969 0.09375 5.964844 0.175781 5.8125 0.34375 C 5.660156 0.503906 5.582031 0.710938 5.582031 0.96875 L 5.582031 17.042969 C 5.582031 17.292969 5.65625 17.492188 5.800781 17.644531 C 5.953125 17.792969 6.15625 17.863281 6.40625 17.863281 L 22.582031 17.863281 C 22.839844 17.863281 23.042969 17.796875 23.1875 17.65625 C 23.339844 17.515625 23.417969 17.328125 23.417969 17.082031 Z M 0.574219 5.886719 C 0.574219 6.136719 0.644531 6.328125 0.792969 6.46875 C 0.945312 6.609375 1.144531 6.675781 1.394531 6.675781 L 16.425781 6.675781 C 16.628906 6.675781 16.730469 6.777344 16.730469 6.980469 L 16.730469 22 C 16.730469 22.265625 16.804688 22.476562 16.957031 22.636719 C 17.109375 22.796875 17.3125 22.875 17.5625 22.875 C 17.820312 22.875 18.023438 22.796875 18.175781 22.636719 C 18.328125 22.476562 18.40625 22.265625 18.40625 22 L 18.40625 5.9375 C 18.40625 5.6875 18.328125 5.484375 18.175781 5.332031 C 18.03125 5.179688 17.832031 5.105469 17.582031 5.105469 L 1.394531 5.105469 C 1.144531 5.105469 0.945312 5.175781 0.792969 5.324219 C 0.644531 5.460938 0.574219 5.648438 0.574219 5.886719 Z M 0.574219 5.886719 "/>
</g>
</svg>

<svg xmlns="http://www.w3.org/2000/svg" width="24" height="24"><path style="stroke:none;fill-rule:nonzero;fill:#fff;fill-opacity:1" d="M23.418 17.082c0-.25-.078-.441-.23-.582-.145-.14-.348-.207-.606-.207H7.562c-.203 0-.3-.102-.3-.305V.968a.875.875 0 0 0-.23-.624c-.153-.168-.36-.25-.614-.25a.785.785 0 0 0-.606.25.875.875 0 0 0-.23.625v16.074c0 .25.074.45.219.602.152.148.355.218.605.218h16.176c.258 0 .461-.066.605-.207.153-.14.231-.328.231-.574ZM.574 5.887c0 .25.07.441.219.582.152.14.352.207.602.207h15.03c.204 0 .305.101.305.304V22c0 .266.075.477.227.637.152.16.355.238.605.238.258 0 .461-.078.614-.238.152-.16.23-.371.23-.637V5.937a.824.824 0 0 0-.23-.605c-.145-.152-.344-.227-.594-.227H1.395c-.25 0-.45.07-.602.22-.148.136-.219.323-.219.562Zm0 0"/></svg>
